!!!SOCIAL_FUNCTION:	bird dance songs
!!!PDT:	1956
!!!OTL: No_121_Hinata_Dance_Song_(q).krn
!!!LANG: Non-Tone
!!!LING_GROUP: Muskogean
!!!REG: Florida
**kern
*staff1
=1-
*clefF4
*k[b-]
*M2/4
4..r
16c\
=2!|:
12c\L
12A\
12A\J
(12B-\L
12A\)
12A\J
=3||
*M5/8
12F\L
12F\
12E\J
12F\L
[12F\
12F\J]
(16B-\LL
16A\JJ)
=4||
*M3/4
(8.c;\L
16B-\Jk)
12A\L
[12F\
12F\J]
12F\L
12C\
12F\J
=5
8.F/L
16C/Jk
12C/L
(12D/
12C/J)
12C/L
(12D/
12C/J)
=6
8.C/L
16C/Jk
4C/
8C/
8r
=7||
*M2/4
8F\
8r
(8F\L
8B-\J)
=8
12A\L
12F\
12F\J
(12F\L
12E\)
12F\J
=9||
*M3/4
8.F/L
16C/Jk
12C/L
(12D/
12C/J)
12C/L
(12D/
12C/J)
=10||
*M2/4
4C/
8C/
16r
16c\
==:|!
*-
